images/twitter.svg

<svg width="40" height="40" viewBox="0 0 40 40" fill="none" xmlns="http://www.w3.org/2000/svg">
<path d="M20 0.799805C9.396 0.799805 0.799995 9.39581 0.799995 19.9998C0.799995 30.6038 9.396 39.1998 20 39.1998C30.604 39.1998 39.2 30.6038 39.2 19.9998C39.2 9.39581 30.604 0.799805 20 0.799805ZM27.81 16.5278C27.818 16.6918 27.82 16.8558 27.82 17.0158C27.82 22.0158 24.018 27.7778 17.062 27.7778C15.0066 27.7812 12.9939 27.1909 11.266 26.0778C11.56 26.1138 11.862 26.1278 12.168 26.1278C13.94 26.1278 15.57 25.5258 16.864 24.5098C16.0754 24.4943 15.3113 24.2332 14.6782 23.7628C14.0451 23.2925 13.5745 22.6363 13.332 21.8858C13.8983 21.9935 14.4817 21.9709 15.038 21.8198C14.1821 21.6467 13.4124 21.183 12.8594 20.5071C12.3064 19.8313 12.0042 18.985 12.004 18.1118V18.0658C12.514 18.3478 13.098 18.5198 13.718 18.5398C12.9156 18.0057 12.3476 17.1851 12.1301 16.2461C11.9126 15.307 12.0621 14.3203 12.548 13.4878C13.4979 14.6558 14.6825 15.6113 16.0251 16.2924C17.3677 16.9736 18.8384 17.3651 20.342 17.4418C20.1508 16.6304 20.2331 15.7786 20.576 15.0188C20.9189 14.259 21.5032 13.6338 22.2381 13.2403C22.973 12.8469 23.8173 12.7073 24.6398 12.8431C25.4622 12.979 26.2167 13.3829 26.786 13.9918C27.6323 13.8244 28.444 13.5139 29.186 13.0738C28.9039 13.9501 28.3133 14.6942 27.524 15.1678C28.2737 15.0775 29.0057 14.876 29.696 14.5698C29.189 15.3296 28.5503 15.9927 27.81 16.5278V16.5278Z" fill="black"/>
</svg>

<svg width="40" height="40" fill="none" xmlns="http://www.w3.org/2000/svg"><path d="M20 .8C9.396.8.8 9.396.8 20S9.396 39.2 20 39.2 39.2 30.604 39.2 20 30.604.8 20 .8Zm7.81 15.728c.008.164.01.328.01.488 0 5-3.802 10.762-10.758 10.762a10.67 10.67 0 0 1-5.796-1.7c.294.036.596.05.902.05a7.574 7.574 0 0 0 4.696-1.618 3.79 3.79 0 0 1-3.532-2.624 3.8 3.8 0 0 0 1.706-.066 3.784 3.784 0 0 1-3.034-3.708v-.046c.51.282 1.094.454 1.714.474a3.78 3.78 0 0 1-1.17-5.052 10.752 10.752 0 0 0 7.794 3.954 3.782 3.782 0 0 1 6.444-3.45 7.593 7.593 0 0 0 2.4-.918 3.8 3.8 0 0 1-1.662 2.094 7.597 7.597 0 0 0 2.172-.598 7.666 7.666 0 0 1-1.886 1.958Z" fill="#000"/></svg>
